static/img/kroki/effdeae15df1f430378a5f440f623358.svg

<?xml version="1.0" encoding="us-ascii" standalone="no"?><svg xmlns="http://www.w3.org/2000/svg" xmlns:xlink="http://www.w3.org/1999/xlink" contentStyleType="text/css" height="861px" preserveAspectRatio="none" style="width:464px;height:861px;" version="1.1" viewBox="0 0 464 861" width="464px" zoomAndPan="magnify"><defs/><g><!--class posthog_event--><g id="elem_posthog_event"><rect codeLine="22" fill="#3D176E" height="415.9453" id="posthog_event" rx="2.5" ry="2.5" style="stroke:#000D19;stroke-width:0.5;" width="229" x="107.5" y="438.75"/><ellipse cx="151.3" cy="458.6445" fill="#ADD1B2" rx="11" ry="11" style="stroke:#181818;stroke-width:1.0;"/><path d="M154.2688,464.2852 Q153.6906,464.582 153.05,464.7227 Q152.4094,464.8789 151.7063,464.8789 Q149.2063,464.8789 147.8781,463.2383 Q146.5656,461.582 146.5656,458.457 Q146.5656,455.332 147.8781,453.6758 Q149.2063,452.0195 151.7063,452.0195 Q152.4094,452.0195 153.05,452.1758 Q153.7063,452.332 154.2688,452.6289 L154.2688,455.3477 Q153.6438,454.7695 153.05,454.5039 Q152.4563,454.2227 151.8313,454.2227 Q150.4875,454.2227 149.8,455.3008 Q149.1125,456.3633 149.1125,458.457 Q149.1125,460.5508 149.8,461.6289 Q150.4875,462.6914 151.8313,462.6914 Q152.4563,462.6914 153.05,462.4258 Q153.6438,462.1445 154.2688,461.5664 L154.2688,464.2852 Z " fill="#000000"/><text fill="#D9B8FF" font-family="Helvetica" font-size="17" lengthAdjust="spacing" textLength="123" x="176.7" y="464.5298">posthog_event</text><line style="stroke:#000D19;stroke-width:0.5;" x1="108.5" x2="335.5" y1="478.5391" y2="478.5391"/><text fill="#D9B8FF" font-family="sans-serif" font-size="14" font-weight="bold" lengthAdjust="spacing" textLength="69" x="118.5" y="500.5342">action_id</text><text fill="#D9B8FF" font-family="sans-serif" font-size="14" lengthAdjust="spacing" textLength="44" x="187.5" y="500.5342">: int64</text><text fill="#D9B8FF" font-family="sans-serif" font-size="14" font-weight="bold" lengthAdjust="spacing" textLength="45" x="118.5" y="526.8311">count</text><text fill="#D9B8FF" font-family="sans-serif" font-size="14" lengthAdjust="spacing" textLength="44" x="163.5" y="526.8311">: int64</text><text fill="#D9B8FF" font-family="sans-serif" font-size="14" font-weight="bold" lengthAdjust="spacing" textLength="89" x="118.5" y="553.1279">description</text><text fill="#D9B8FF" font-family="sans-serif" font-size="14" lengthAdjust="spacing" textLength="48" x="207.5" y="553.1279">: string</text><text fill="#D9B8FF" font-family="sans-serif" font-size="14" font-weight="bold" lengthAdjust="spacing" textLength="68" x="118.5" y="579.4248">is_action</text><text fill="#D9B8FF" font-family="sans-serif" font-size="14" lengthAdjust="spacing" textLength="65" x="186.5" y="579.4248">: boolean</text><text fill="#D9B8FF" font-family="sans-serif" font-size="14" font-weight="bold" lengthAdjust="spacing" textLength="104" x="118.5" y="605.7217">is_calculating</text><text fill="#D9B8FF" font-family="sans-serif" font-size="14" lengthAdjust="spacing" textLength="65" x="222.5" y="605.7217">: boolean</text><text fill="#D9B8FF" font-family="sans-serif" font-size="14" font-weight="bold" lengthAdjust="spacing" textLength="137" x="118.5" y="632.0186">last_calculated_at</text><text fill="#D9B8FF" font-family="sans-serif" font-size="14" lengthAdjust="spacing" textLength="48" x="255.5" y="632.0186">: string</text><text fill="#D9B8FF" font-family="sans-serif" font-size="14" font-weight="bold" lengthAdjust="spacing" textLength="96" x="118.5" y="658.3154">last_seen_at</text><text fill="#D9B8FF" font-family="sans-serif" font-size="14" lengthAdjust="spacing" textLength="48" x="214.5" y="658.3154">: string</text><text fill="#D9B8FF" font-family="sans-serif" font-size="14" font-weight="bold" lengthAdjust="spacing" textLength="105" x="118.5" y="684.6123">post_to_slack</text><text fill="#D9B8FF" font-family="sans-serif" font-size="14" lengthAdjust="spacing" textLength="65" x="223.5" y="684.6123">: boolean</text><text fill="#D9B8FF" font-family="sans-serif" font-size="14" font-weight="bold" lengthAdjust="spacing" textLength="106" x="118.5" y="710.9092">posthog_tags</text><text fill="#D9B8FF" font-family="sans-serif" font-size="14" lengthAdjust="spacing" textLength="58" x="224.5" y="710.9092">: string[]</text><text fill="#D9B8FF" font-family="sans-serif" font-size="14" font-weight="bold" lengthAdjust="spacing" textLength="77" x="118.5" y="737.2061">project_id</text><text fill="#D9B8FF" font-family="sans-serif" font-size="14" lengthAdjust="spacing" textLength="44" x="195.5" y="737.2061">: int64</text><text fill="#D9B8FF" font-family="sans-serif" font-size="14" font-weight="bold" lengthAdjust="spacing" textLength="163" x="118.5" y="763.5029">query_usage_30_day</text><text fill="#D9B8FF" font-family="sans-serif" font-size="14" lengthAdjust="spacing" textLength="44" x="281.5" y="763.5029">: int64</text><text fill="#D9B8FF" font-family="sans-serif" font-size="14" font-weight="bold" lengthAdjust="spacing" textLength="60" x="118.5" y="789.7998">verified</text><text fill="#D9B8FF" font-family="sans-serif" font-size="14" lengthAdjust="spacing" textLength="65" x="178.5" y="789.7998">: boolean</text><text fill="#D9B8FF" font-family="sans-serif" font-size="14" font-weight="bold" lengthAdjust="spacing" textLength="82" x="118.5" y="816.0967">verified_at</text><text fill="#D9B8FF" font-family="sans-serif" font-size="14" lengthAdjust="spacing" textLength="48" x="200.5" y="816.0967">: string</text><text fill="#D9B8FF" font-family="sans-serif" font-size="14" font-weight="bold" lengthAdjust="spacing" textLength="119" x="118.5" y="842.3936">volume_30_day</text><text fill="#D9B8FF" font-family="sans-serif" font-size="14" lengthAdjust="spacing" textLength="44" x="237.5" y="842.3936">: int64</text></g><!--class posthog_resource--><g id="elem_posthog_resource"><rect codeLine="38" fill="#3D176E" height="39.7891" id="posthog_resource" rx="2.5" ry="2.5" style="stroke:#000D19;stroke-width:0.5;" width="188" x="7" y="142.48"/><ellipse cx="22" cy="162.3745" fill="#ADD1B2" rx="11" ry="11" style="stroke:#181818;stroke-width:1.0;"/><path d="M24.9688,168.0152 Q24.3906,168.312 23.75,168.4527 Q23.1094,168.6089 22.4063,168.6089 Q19.9063,168.6089 18.5781,166.9683 Q17.2656,165.312 17.2656,162.187 Q17.2656,159.062 18.5781,157.4058 Q19.9063,155.7495 22.4063,155.7495 Q23.1094,155.7495 23.75,155.9058 Q24.4063,156.062 24.9688,156.3589 L24.9688,159.0777 Q24.3438,158.4995 23.75,158.2339 Q23.1563,157.9527 22.5313,157.9527 Q21.1875,157.9527 20.5,159.0308 Q19.8125,160.0933 19.8125,162.187 Q19.8125,164.2808 20.5,165.3589 Q21.1875,166.4214 22.5313,166.4214 Q23.1563,166.4214 23.75,166.1558 Q24.3438,165.8745 24.9688,165.2964 L24.9688,168.0152 Z " fill="#000000"/><text fill="#D9B8FF" font-family="Helvetica" font-size="17" lengthAdjust="spacing" textLength="146" x="41" y="168.2598">posthog_resource</text></g><!--class resource--><g id="elem_resource"><rect codeLine="40" fill="#3D176E" height="310.7578" id="resource" rx="2.5" ry="2.5" style="stroke:#000D19;stroke-width:0.5;" width="227" x="230.5" y="7"/><ellipse cx="299.25" cy="26.8945" fill="#ADD1B2" rx="11" ry="11" style="stroke:#181818;stroke-width:1.0;"/><path d="M302.2188,32.5352 Q301.6406,32.832 301,32.9727 Q300.3594,33.1289 299.6563,33.1289 Q297.1563,33.1289 295.8281,31.4883 Q294.5156,29.832 294.5156,26.707 Q294.5156,23.582 295.8281,21.9258 Q297.1563,20.2695 299.6563,20.2695 Q300.3594,20.2695 301,20.4258 Q301.6563,20.582 302.2188,20.8789 L302.2188,23.5977 Q301.5938,23.0195 301,22.7539 Q300.4063,22.4727 299.7813,22.4727 Q298.4375,22.4727 297.75,23.5508 Q297.0625,24.6133 297.0625,26.707 Q297.0625,28.8008 297.75,29.8789 Q298.4375,30.9414 299.7813,30.9414 Q300.4063,30.9414 301,30.6758 Q301.5938,30.3945 302.2188,29.8164 L302.2188,32.5352 Z " fill="#000000"/><text fill="#D9B8FF" font-family="Helvetica" font-size="17" lengthAdjust="spacing" textLength="71" x="324.75" y="32.7798">resource</text><line style="stroke:#000D19;stroke-width:0.5;" x1="231.5" x2="456.5" y1="46.7891" y2="46.7891"/><text fill="#D9B8FF" font-family="sans-serif" font-size="14" font-weight="bold" lengthAdjust="spacing" textLength="29" x="241.5" y="68.7842">age</text><text fill="#D9B8FF" font-family="sans-serif" font-size="14" lengthAdjust="spacing" textLength="66" x="270.5" y="68.7842">: duration</text><text fill="#D9B8FF" font-family="sans-serif" font-size="14" font-weight="bold" lengthAdjust="spacing" textLength="43" x="241.5" y="95.0811">atime</text><text fill="#D9B8FF" font-family="sans-serif" font-size="14" lengthAdjust="spacing" textLength="70" x="284.5" y="95.0811">: datetime</text><text fill="#D9B8FF" font-family="sans-serif" font-size="14" font-weight="bold" lengthAdjust="spacing" textLength="43" x="241.5" y="121.3779">ctime</text><text fill="#D9B8FF" font-family="sans-serif" font-size="14" lengthAdjust="spacing" textLength="70" x="284.5" y="121.3779">: datetime</text><text fill="#D9B8FF" font-family="sans-serif" font-size="14" font-weight="bold" lengthAdjust="spacing" textLength="14" x="241.5" y="147.6748">id</text><text fill="#D9B8FF" font-family="sans-serif" font-size="14" lengthAdjust="spacing" textLength="48" x="255.5" y="147.6748">: string</text><text fill="#D9B8FF" font-family="sans-serif" font-size="14" font-weight="bold" lengthAdjust="spacing" textLength="33" x="241.5" y="173.9717">kind</text><text fill="#D9B8FF" font-family="sans-serif" font-size="14" lengthAdjust="spacing" textLength="48" x="274.5" y="173.9717">: string</text><text fill="#D9B8FF" font-family="sans-serif" font-size="14" font-weight="bold" lengthAdjust="spacing" textLength="90" x="241.5" y="200.2686">last_access</text><text fill="#D9B8FF" font-family="sans-serif" font-size="14" lengthAdjust="spacing" textLength="66" x="331.5" y="200.2686">: duration</text><text fill="#D9B8FF" font-family="sans-serif" font-size="14" font-weight="bold" lengthAdjust="spacing" textLength="90" x="241.5" y="226.5654">last_update</text><text fill="#D9B8FF" font-family="sans-serif" font-size="14" lengthAdjust="spacing" textLength="66" x="331.5" y="226.5654">: duration</text><text fill="#D9B8FF" font-family="sans-serif" font-size="14" font-weight="bold" lengthAdjust="spacing" textLength="48" x="241.5" y="252.8623">mtime</text><text fill="#D9B8FF" font-family="sans-serif" font-size="14" lengthAdjust="spacing" textLength="70" x="289.5" y="252.8623">: datetime</text><text fill="#D9B8FF" font-family="sans-serif" font-size="14" font-weight="bold" lengthAdjust="spacing" textLength="43" x="241.5" y="279.1592">name</text><text fill="#D9B8FF" font-family="sans-serif" font-size="14" lengthAdjust="spacing" textLength="48" x="284.5" y="279.1592">: string</text><text fill="#D9B8FF" font-family="sans-serif" font-size="14" font-weight="bold" lengthAdjust="spacing" textLength="34" x="241.5" y="305.4561">tags</text><text fill="#D9B8FF" font-family="sans-serif" font-size="14" lengthAdjust="spacing" textLength="171" x="275.5" y="305.4561">: dictionary[string, string]</text></g><!--reverse link posthog_resource to posthog_event--><g id="link_posthog_resource_posthog_event"><path codeLine="52" d="M110.1989,200.0393 C121.1089,243.5393 144.37,336.28 169.96,438.27 " fill="none" id="posthog_resource-backto-posthog_event" style="stroke:#FFAF37;stroke-width:2.0;"/><polygon fill="none" points="105.82,182.58,104.3791,201.4989,116.0186,198.5796,105.82,182.58" style="stroke:#FFAF37;stroke-width:2.0;"/></g><!--reverse link resource to posthog_event--><g id="link_resource_posthog_event"><path codeLine="53" d="M300.4851,335.4402 C290.7951,373.7402 284.67,397.95 274.46,438.32 " fill="none" id="resource-backto-posthog_event" style="stroke:#FFAF37;stroke-width:2.0;"/><polygon fill="none" points="304.9,317.99,294.6683,333.9685,306.3018,336.9118,304.9,317.99" style="stroke:#FFAF37;stroke-width:2.0;"/></g><!--SRC=[XLJBRjim4BpxAmZaPjI07RTnNFII62ZQIr0qlGM1i2PNCck9L9Sh1-xZtqjQaKDHZdCpPeQxCwE5DrgXmAhclQYmMYEvaTjgKmD19Mw8xDFAbfR4HPv3Fb-av6Th-4t17LGelc2vGzOIKiMFZPPRWyw9ouYw1Rajo3P6jUEPm3XFeU58jIh1kHjcqkk6CJAZbklhF4-LwT2BkPejhd0WiwIGdYNJwLJDbgdapLLdSnyLz_etYbbSsfrb7DWSh3YepheCYiZa86Z7l-hn6oYbJI4-HDZtrXCPf1v-lm5bdu8wXzB5QnmZeULzZQj1AbnUgtnnKlprDR4CpOdQEjxO8iETFmVnPpGUWsHjJQRLUFnHQCDNxpqe_NkE0OLEagw3DC3EtuqfFAvTrWu8wDhQ4i6qi8HIDYMmr_KvxuEFBAeCk3VnG3j4anB1UiOsSwLFs1_PfM8etCkRXyT0aVs9afDylngaVTOuA32RJpC5-vZT8UbSe-elwT3KrywMJJKSyozfdD3PXYJwqZigWlntA30yLWr1w3CWhAiMyps5t-73dC3QQ4S__YZKi56GqlzH91iEJ5E7MGbJdTXZe8MEWxkwbJwS0D3-eUNUFMiUVTH1_az_9vD9_n17vyZ_]--></g></svg>

<svg xmlns="http://www.w3.org/2000/svg" width="464" height="861" viewBox="0 0 464 861"><rect width="229" height="415.945" x="107.5" y="438.75" fill="#3D176E" rx="2.5" ry="2.5" style="stroke:#000d19;stroke-width:.5"/><circle cx="151.3" cy="458.644" r="11" fill="#ADD1B2" style="stroke:#181818;stroke-width:1"/><path d="M154.269 464.285q-.578.297-1.219.438-.64.156-1.344.156-2.5 0-3.828-1.64-1.312-1.657-1.312-4.782t1.312-4.781q1.328-1.656 3.828-1.656.703 0 1.344.156.656.156 1.219.453v2.719q-.625-.579-1.219-.844-.594-.281-1.219-.281-1.343 0-2.031 1.078-.687 1.062-.687 3.156t.687 3.172q.688 1.062 2.031 1.062.625 0 1.219-.265.594-.281 1.219-.86z"/><text x="176.7" y="464.53" fill="#D9B8FF" font-family="Helvetica" font-size="17" textLength="123">posthog_event</text><path d="M108.5 478.539h227" style="stroke:#000d19;stroke-width:.5"/><text x="118.5" y="500.534" fill="#D9B8FF" font-family="sans-serif" font-size="14" font-weight="bold" textLength="69">action_id</text><text x="187.5" y="500.534" fill="#D9B8FF" font-family="sans-serif" font-size="14" textLength="44">: int64</text><text x="118.5" y="526.831" fill="#D9B8FF" font-family="sans-serif" font-size="14" font-weight="bold" textLength="45">count</text><text x="163.5" y="526.831" fill="#D9B8FF" font-family="sans-serif" font-size="14" textLength="44">: int64</text><text x="118.5" y="553.128" fill="#D9B8FF" font-family="sans-serif" font-size="14" font-weight="bold" textLength="89">description</text><text x="207.5" y="553.128" fill="#D9B8FF" font-family="sans-serif" font-size="14" textLength="48">: string</text><text x="118.5" y="579.425" fill="#D9B8FF" font-family="sans-serif" font-size="14" font-weight="bold" textLength="68">is_action</text><text x="186.5" y="579.425" fill="#D9B8FF" font-family="sans-serif" font-size="14" textLength="65">: boolean</text><text x="118.5" y="605.722" fill="#D9B8FF" font-family="sans-serif" font-size="14" font-weight="bold" textLength="104">is_calculating</text><text x="222.5" y="605.722" fill="#D9B8FF" font-family="sans-serif" font-size="14" textLength="65">: boolean</text><text x="118.5" y="632.019" fill="#D9B8FF" font-family="sans-serif" font-size="14" font-weight="bold" textLength="137">last_calculated_at</text><text x="255.5" y="632.019" fill="#D9B8FF" font-family="sans-serif" font-size="14" textLength="48">: string</text><text x="118.5" y="658.315" fill="#D9B8FF" font-family="sans-serif" font-size="14" font-weight="bold" textLength="96">last_seen_at</text><text x="214.5" y="658.315" fill="#D9B8FF" font-family="sans-serif" font-size="14" textLength="48">: string</text><text x="118.5" y="684.612" fill="#D9B8FF" font-family="sans-serif" font-size="14" font-weight="bold" textLength="105">post_to_slack</text><text x="223.5" y="684.612" fill="#D9B8FF" font-family="sans-serif" font-size="14" textLength="65">: boolean</text><text x="118.5" y="710.909" fill="#D9B8FF" font-family="sans-serif" font-size="14" font-weight="bold" textLength="106">posthog_tags</text><text x="224.5" y="710.909" fill="#D9B8FF" font-family="sans-serif" font-size="14" textLength="58">: string[]</text><text x="118.5" y="737.206" fill="#D9B8FF" font-family="sans-serif" font-size="14" font-weight="bold" textLength="77">project_id</text><text x="195.5" y="737.206" fill="#D9B8FF" font-family="sans-serif" font-size="14" textLength="44">: int64</text><text x="118.5" y="763.503" fill="#D9B8FF" font-family="sans-serif" font-size="14" font-weight="bold" textLength="163">query_usage_30_day</text><text x="281.5" y="763.503" fill="#D9B8FF" font-family="sans-serif" font-size="14" textLength="44">: int64</text><text x="118.5" y="789.8" fill="#D9B8FF" font-family="sans-serif" font-size="14" font-weight="bold" textLength="60">verified</text><text x="178.5" y="789.8" fill="#D9B8FF" font-family="sans-serif" font-size="14" textLength="65">: boolean</text><text x="118.5" y="816.097" fill="#D9B8FF" font-family="sans-serif" font-size="14" font-weight="bold" textLength="82">verified_at</text><text x="200.5" y="816.097" fill="#D9B8FF" font-family="sans-serif" font-size="14" textLength="48">: string</text><text x="118.5" y="842.394" fill="#D9B8FF" font-family="sans-serif" font-size="14" font-weight="bold" textLength="119">volume_30_day</text><text x="237.5" y="842.394" fill="#D9B8FF" font-family="sans-serif" font-size="14" textLength="44">: int64</text><rect width="188" height="39.789" x="7" y="142.48" fill="#3D176E" rx="2.5" ry="2.5" style="stroke:#000d19;stroke-width:.5"/><circle cx="22" cy="162.375" r="11" fill="#ADD1B2" style="stroke:#181818;stroke-width:1"/><path d="M24.969 168.015q-.578.297-1.219.438-.64.156-1.344.156-2.5 0-3.828-1.64-1.312-1.657-1.312-4.782t1.312-4.781q1.328-1.656 3.828-1.656.703 0 1.344.156.656.156 1.219.453v2.719q-.625-.578-1.219-.844-.594-.281-1.219-.281-1.343 0-2.031 1.078-.687 1.062-.687 3.156t.687 3.172q.688 1.062 2.031 1.062.625 0 1.219-.265.594-.281 1.219-.86z"/><text x="41" y="168.26" fill="#D9B8FF" font-family="Helvetica" font-size="17" textLength="146">posthog_resource</text><rect width="227" height="310.758" x="230.5" y="7" fill="#3D176E" rx="2.5" ry="2.5" style="stroke:#000d19;stroke-width:.5"/><circle cx="299.25" cy="26.895" r="11" fill="#ADD1B2" style="stroke:#181818;stroke-width:1"/><path d="M302.219 32.535q-.578.297-1.219.438-.64.156-1.344.156-2.5 0-3.828-1.64-1.312-1.657-1.312-4.782t1.312-4.781q1.328-1.656 3.828-1.656.703 0 1.344.156.656.156 1.219.453v2.719q-.625-.578-1.219-.844-.594-.281-1.219-.281-1.344 0-2.031 1.078-.687 1.062-.687 3.156t.687 3.172q.688 1.062 2.031 1.062.625 0 1.219-.265.594-.281 1.219-.86z"/><text x="324.75" y="32.78" fill="#D9B8FF" font-family="Helvetica" font-size="17" textLength="71">resource</text><path d="M231.5 46.789h225" style="stroke:#000d19;stroke-width:.5"/><text x="241.5" y="68.784" fill="#D9B8FF" font-family="sans-serif" font-size="14" font-weight="bold" textLength="29">age</text><text x="270.5" y="68.784" fill="#D9B8FF" font-family="sans-serif" font-size="14" textLength="66">: duration</text><text x="241.5" y="95.081" fill="#D9B8FF" font-family="sans-serif" font-size="14" font-weight="bold" textLength="43">atime</text><text x="284.5" y="95.081" fill="#D9B8FF" font-family="sans-serif" font-size="14" textLength="70">: datetime</text><text x="241.5" y="121.378" fill="#D9B8FF" font-family="sans-serif" font-size="14" font-weight="bold" textLength="43">ctime</text><text x="284.5" y="121.378" fill="#D9B8FF" font-family="sans-serif" font-size="14" textLength="70">: datetime</text><text x="241.5" y="147.675" fill="#D9B8FF" font-family="sans-serif" font-size="14" font-weight="bold" textLength="14">id</text><text x="255.5" y="147.675" fill="#D9B8FF" font-family="sans-serif" font-size="14" textLength="48">: string</text><text x="241.5" y="173.972" fill="#D9B8FF" font-family="sans-serif" font-size="14" font-weight="bold" textLength="33">kind</text><text x="274.5" y="173.972" fill="#D9B8FF" font-family="sans-serif" font-size="14" textLength="48">: string</text><text x="241.5" y="200.269" fill="#D9B8FF" font-family="sans-serif" font-size="14" font-weight="bold" textLength="90">last_access</text><text x="331.5" y="200.269" fill="#D9B8FF" font-family="sans-serif" font-size="14" textLength="66">: duration</text><text x="241.5" y="226.565" fill="#D9B8FF" font-family="sans-serif" font-size="14" font-weight="bold" textLength="90">last_update</text><text x="331.5" y="226.565" fill="#D9B8FF" font-family="sans-serif" font-size="14" textLength="66">: duration</text><text x="241.5" y="252.862" fill="#D9B8FF" font-family="sans-serif" font-size="14" font-weight="bold" textLength="48">mtime</text><text x="289.5" y="252.862" fill="#D9B8FF" font-family="sans-serif" font-size="14" textLength="70">: datetime</text><text x="241.5" y="279.159" fill="#D9B8FF" font-family="sans-serif" font-size="14" font-weight="bold" textLength="43">name</text><text x="284.5" y="279.159" fill="#D9B8FF" font-family="sans-serif" font-size="14" textLength="48">: string</text><text x="241.5" y="305.456" fill="#D9B8FF" font-family="sans-serif" font-size="14" font-weight="bold" textLength="34">tags</text><text x="275.5" y="305.456" fill="#D9B8FF" font-family="sans-serif" font-size="14" textLength="171">: dictionary[string, string]</text><path fill="none" d="M110.199 200.04c10.91 43.5 34.171 136.24 59.761 238.23m-64.14-255.69-1.44 18.919 11.639-2.92z" style="stroke:#ffaf37;stroke-width:2"/><g fill="none"><path d="M300.485 335.44c-9.69 38.3-15.815 62.51-26.025 102.88" style="stroke:#ffaf37;stroke-width:2"/><path d="m304.9 317.99-10.232 15.978 11.634 2.944z" style="stroke:#ffaf37;stroke-width:2"/></g></svg>
